public/nuxt_images/errors/404.svg

<svg width="149" height="141" viewBox="0 0 149 141" fill="none" xmlns="http://www.w3.org/2000/svg">
<path d="M134.465 128.858C122.144 125.77 110.113 122.995 98.1979 119.581C94.1538 118.421 91.1751 119.248 87.7615 121.241C77.4845 127.343 66.9683 133.221 56.6405 139.229C55.5099 139.947 54.1474 140.439 52.8211 140.563C51.473 140.758 50.0742 140.628 48.7552 140.229C34.463 136.156 20.1057 132.293 5.79177 128.293C1.17508 127.032 1.19682 126.959 1.14609 122.168C0.885177 86.6194 0.6895 51.0849 0.428589 15.5358C0.457579 13.9559 0.624276 12.4122 0.885188 10.825C1.09537 9.14353 2.34194 8.542 3.77695 8.30283C13.206 6.71563 22.6133 5.20088 31.9554 3.66441C34.8327 3.17883 37.6375 2.67873 40.5727 2.51204C43.8196 2.29461 44.5371 3.42523 44.1603 6.64313C43.7471 10.2306 43.5587 13.8109 43.421 17.4854C43.4717 17.8043 43.6167 18.0797 43.7616 18.3479C43.9283 18.5508 44.2327 18.7972 44.4864 18.9494C46.5664 19.5872 48.7117 20.0148 50.8497 20.4424C51.444 20.4714 52.0166 20.3482 52.4659 20.1018C65.3811 13.8182 78.2672 7.60705 91.1533 1.17126C93.2334 0.062395 95.6106 -0.270989 97.9588 0.221842C107.112 2.26564 116.302 4.17174 125.55 6.16481C131.747 7.45487 137.929 8.81738 144.06 10.0857C147.699 10.8177 148.692 12.0353 148.373 15.804C147.394 29.1467 146.351 42.4676 145.358 55.8828C143.597 79.2197 141.908 102.578 140.125 125.981C140.125 126.734 140.002 127.379 139.784 128.075C139.299 129.67 138.212 130.249 136.523 129.807C135.762 129.575 134.95 129.249 134.486 129.032L134.457 128.872L134.465 128.858ZM55.191 133.779C55.6259 133.605 55.9665 133.482 56.3941 133.315C64.0113 128.974 71.5632 124.618 79.1296 120.19C79.4195 119.98 79.6442 119.741 79.7529 119.393L80.0501 118.421C79.9269 113.384 79.434 108.304 79.608 103.281C79.7892 100.455 80.5502 97.7298 81.7025 95.2077C83.3767 91.4752 86.9715 89.388 90.4286 87.4964C90.9504 87.279 91.465 86.8296 91.7766 86.3151C92.0883 85.8005 92.2767 85.1771 92.2187 84.6336C92.4144 76.8135 92.6318 68.921 92.9145 61.0502C93.0449 56.9192 93.1174 52.7011 93.2624 48.2728C90.2329 49.0121 87.4498 50.4326 85.0654 52.5127C78.2599 58.1585 71.5487 63.9927 64.6708 69.6168C62.0399 71.7693 59.1989 73.6246 56.3869 75.6466C56.0027 75.9076 55.3505 76.3135 55.336 76.6106C55.22 79.4589 55.249 82.3434 55.2562 85.3004C55.5099 85.2279 55.8288 85.1699 56.0752 85.0974C61.7428 82.6623 66.6421 85.9816 66.2653 92.1565C65.8739 98.6285 62.4603 103.347 56.9449 106.507C55.7491 107.202 55.0098 107.884 55.2272 109.391C55.2635 110.007 55.2562 110.536 55.2272 111.131L55.2418 133.873L55.191 133.786V133.779ZM49.9655 107.775C48.603 107.514 47.5738 107.42 46.5085 107.173C41.109 105.746 36.1735 103.557 32.9556 98.7083C30.8828 95.5701 30.4914 91.6636 32.3105 89.4169C34.5573 86.5397 37.623 86.4165 40.8989 87.1195C43.4065 87.5834 45.9432 88.2066 48.4653 87.163C49.5089 86.7209 50.0452 86.2063 50.0163 85.0612C49.9293 82.6115 49.9148 80.1837 50.0453 77.792C50.1902 77.3064 49.9945 76.7121 49.7336 76.3352C49.422 75.8641 48.9799 75.5742 48.4943 75.4293C44.9575 74.1175 41.5439 72.6245 37.9854 71.3779C27.4619 67.6237 16.895 69.4718 6.17588 71.0445C6.03093 71.5301 6.03819 71.9867 6.05269 72.4433C6.10342 81.9303 6.24837 91.3738 6.22662 100.846C6.21213 102.129 6.70496 102.506 7.83558 102.781C15.9963 104.593 24.157 106.412 32.3178 108.224C36.1445 109.094 37.1156 110.377 36.8257 114.305C36.5358 118.233 36.1735 122.139 35.7894 126.111C35.4995 129.358 36.9055 131.453 40.0002 132.402L42.8412 133.272C45.1459 133.902 47.4796 134.46 50.0163 135.091L49.9873 107.949L49.9583 107.789L49.9655 107.775ZM138.386 78.8936C139.292 66.2829 140.197 53.9042 141.212 41.1775C139.183 41.6196 137.61 42.0472 136.016 42.3154C129.304 43.446 122.615 44.7361 115.831 45.613C110.62 46.2943 105.402 46.5117 100.184 46.961C99.1763 47.0335 98.5241 47.4394 98.5313 48.6497C98.2414 60.9922 97.8138 73.2912 97.5239 85.6337C97.5167 86.1628 97.8356 87.0905 98.2487 87.221C100.474 88.1269 102.778 88.7574 105.011 87.1702C106.069 86.431 106.989 85.6555 107.866 84.7858C114.962 77.7123 123.441 75.7554 133.066 77.4875C134.791 77.7919 136.523 78.321 138.487 78.8428L138.4 78.8936H138.386ZM55.2418 69.9791C55.6766 69.8052 56.126 69.566 56.5536 69.3993C57.5247 68.7108 58.4887 68.0223 59.3873 67.312C66.258 61.456 73.0562 55.5783 79.9051 49.7948C83.181 47.0118 86.7468 44.5331 91.0084 43.4895C93.0377 43.0474 93.545 42.1414 93.516 40.2426C93.4725 35.6839 93.7262 31.1325 93.8349 26.3201C91.4867 26.0592 89.1023 25.936 86.7613 25.8998C85.0654 25.9867 83.4274 26.3926 81.9054 27.1464C80.4269 27.7552 79.2021 28.2914 78.0498 26.8782C77.1293 25.6896 77.5497 24.2981 79.2384 23.0008C81.7098 21.1019 84.5436 20.5294 87.6165 20.6381C89.7763 20.7685 91.8636 20.8773 94.0886 21.0295L94.5307 5.70096C94.3205 5.63573 94.0741 5.71545 93.8204 5.78793C81.2677 11.8758 68.7222 17.9638 56.2202 24.1459C56.039 24.2401 55.8578 24.3415 55.7273 24.5227C55.5969 24.7112 55.4592 24.8996 55.4012 25.1026C55.3287 28.7988 55.4012 32.5312 55.3795 36.3144C57.2058 36.039 58.7568 35.6839 60.2426 35.5317C65.2723 34.9519 70.0702 35.3578 74.1506 38.88C75.8393 40.3078 76.2886 41.808 75.1942 43.1416C74.0999 44.4751 72.7446 44.2143 70.9544 43.1344C69.3455 42.1849 67.5988 40.9674 65.8811 40.9021C62.7357 40.7717 59.5178 41.3805 56.2999 41.7573C56.0317 41.9023 55.8071 42.1342 55.5824 42.3733C55.4302 42.627 55.3432 42.9097 55.307 43.2721C55.249 52.1213 55.2852 60.927 55.2635 70.1676L55.2345 70.0082L55.2418 69.9791ZM18.3083 47.9902C18.6779 48.0264 18.9026 48.0192 19.1852 48.1062C24.0918 48.1714 25.9182 49.6353 27.0416 54.3752C27.114 54.6289 27.2807 54.8246 27.4474 55.0275C27.6141 55.2304 27.8678 55.3826 28.078 55.4478C31.8467 56.7524 33.818 59.4775 34.1441 63.3694C34.0862 63.8043 34.2601 64.2391 34.4703 64.529C34.7529 64.8406 35.1443 65.0363 35.5139 65.0798C37.5433 65.6234 39.5363 66.3119 41.5439 66.928C44.2762 67.9136 47.0013 68.8992 49.9873 70.0443L50.0308 43.1488C42.4861 44.7795 35.4922 44.8375 29.6869 39.0468C24.1643 33.5676 22.5771 26.8637 23.3018 19.2828L5.68306 15.1807C5.72654 24.443 5.85699 33.4227 5.87873 42.5256C14.1192 40.1194 17.1777 41.5109 18.2575 47.9032L18.3083 47.9902ZM98.6255 41.6414C102.583 41.337 106.177 40.9963 109.722 40.7934C118.491 40.373 127.297 39.5758 135.762 36.9377C137.175 36.5391 138.61 36.2927 140.052 36.2782C141.06 36.2057 141.582 35.9883 141.625 34.8649C142.002 28.6901 142.444 22.5369 142.959 16.3983C143.038 15.1372 142.553 14.7603 141.538 14.6009C138.958 14.1153 136.421 13.492 133.82 13.0717C133.45 13.0354 133.131 13.0862 132.79 13.2094C132.45 13.3326 132.16 13.5428 131.863 13.7602C128.638 16.8694 125.717 20.2177 122.397 23.1457C116.853 27.8928 110.149 29.2481 103.047 28.6683C101.785 28.5886 100.539 28.2045 99.0386 27.9001C98.8792 32.6255 98.785 37.1479 98.6255 41.6414ZM137.168 94.7439C137.364 91.6202 137.668 88.9096 137.69 86.1121C137.661 85.7207 137.552 85.3149 137.364 84.9525C137.175 84.5901 136.885 84.2784 136.494 84.0828C127.079 80.6692 118.411 81.5027 111.077 88.8879C108.997 90.9824 106.634 92.758 103.706 93.1494C101.648 93.4321 99.4155 93.0479 97.147 93.0334C96.9876 99.5054 96.7629 106.18 96.6107 112.877C96.6252 113.334 97.3934 114.03 97.9008 114.109C102.17 115.262 106.395 116.327 110.685 117.414C111.381 117.624 112.186 117.718 113.476 117.965C112.823 116.631 112.432 115.675 111.932 114.841C111.33 113.827 110.642 112.855 109.953 111.884C108.308 109.333 108.475 106.811 110.272 104.405C112.621 101.18 115.766 99.5707 119.651 98.788C122.869 98.1792 126.014 97.324 129.08 96.2151C131.667 95.1859 134.066 93.8017 137.182 94.7512L137.168 94.7439ZM134.856 123.596L135.175 122.56C135.646 115.805 136.197 109.079 136.668 102.325C136.864 99.9621 135.573 98.9619 133.472 100.136C129.196 102.462 124.499 103.455 119.752 104.354C118.15 104.622 116.672 105.76 115.317 106.71C113.961 107.659 114.085 108.761 114.947 110.159C116.136 111.964 117.766 113.827 117.976 115.863C118.317 119.451 120.375 120.161 123.303 120.755C127.174 121.487 130.913 122.632 134.907 123.698L134.856 123.611V123.596ZM126.623 11.557L99.7779 5.91838C99.6547 11.0351 99.517 15.688 99.2851 20.3989C99.2053 21.8919 99.6837 22.5659 101.14 23.0153C109.866 25.4577 122.166 20.2032 126.637 12.0208C126.637 12.0208 126.681 11.8831 126.623 11.5642V11.557ZM27.8025 20.4279C28.3171 23.6965 28.5925 26.5086 29.3753 29.1684C31.4191 35.8579 36.9924 39.4599 43.9428 38.7786C45.5011 38.6482 47.052 38.2857 48.603 38.1553C49.6322 38.0176 50.009 37.5248 49.9583 36.4449C49.8568 33.3067 49.8496 30.1178 49.9728 26.9796C49.9728 25.7621 49.4727 25.3852 48.4146 25.1388C46.1316 24.6677 43.8269 24.0372 41.4714 23.5443L27.6576 20.3772L27.7953 20.4207L27.8025 20.4279ZM5.9657 65.2828L28.665 63.4346C28.4766 61.3328 27.4909 60.3472 25.1499 60.311C21.7581 60.2602 21.0261 59.4268 21.5552 55.9552C21.5987 55.8175 21.6421 55.6798 21.5914 55.5856C21.99 54.0419 21.1638 53.2591 19.6998 53.3388C18.6199 53.3896 17.4821 53.6432 16.4601 54.0128C13.7133 55.0637 11.8217 53.578 12.2493 50.679C12.3218 49.947 12.6769 49.2947 12.7494 48.5555C13.0321 46.8958 12.1841 46.1856 10.5679 46.5262C7.21953 47.3234 5.77002 49.0773 5.80625 52.4184C5.80625 54.3898 5.80626 56.361 5.88599 58.3541C5.98745 60.7385 5.95845 63.0722 5.94396 65.348L5.9657 65.2755V65.2828ZM30.129 129.974C30.5711 124.575 30.9118 119.98 31.4191 115.363C31.5858 113.819 31.0712 113.283 29.6434 113C24.3672 111.913 19.1345 110.696 13.8945 109.471C11.4086 108.935 8.98793 108.42 6.27011 107.898C6.32809 112.921 6.34982 117.545 6.44404 122.197C6.51652 122.451 6.66147 122.719 6.90064 122.944C7.13256 123.169 7.39347 123.321 7.66888 123.408C11.1332 124.466 14.6627 125.321 18.1271 126.379C22.0045 127.568 25.8892 128.756 30.187 130.068L30.1363 129.981L30.129 129.974ZM91.8853 92.6349C88.5877 94.7366 85.522 96.5992 85.2176 100.295C84.79 105.166 85.0944 110.109 85.1016 115.037C85.1813 115.515 85.2611 115.994 85.4857 116.515C89.3124 114.754 91.3055 111.855 91.4795 107.818L91.5447 107.608L91.9288 92.7218L91.8781 92.6349H91.8853ZM38.7029 7.84624L15.431 11.5642L15.402 12.1585L38.0433 17.4202L38.7029 7.84624ZM49.9945 102.477L49.9655 92.1638C46.378 93.4901 43.1456 92.6566 39.9494 92.2073C38.8696 92.0261 37.6882 92.4247 36.5648 92.6131C36.8257 93.751 37.1011 94.8236 37.449 95.918C37.7172 96.5268 38.1665 97.0486 38.6521 97.4255C41.6598 100.469 45.4938 101.564 49.9655 102.557L49.9873 102.484L49.9945 102.477ZM55.2418 101.433C58.8365 98.5923 61.0543 95.5556 60.9746 91.3665C60.9456 90.9752 60.7716 90.5475 60.489 90.2286C60.2063 89.9097 59.9237 89.5981 59.5975 89.4242C58.5104 89.0183 55.3142 91.526 55.2997 92.8088C55.2272 95.5194 55.249 98.1719 55.22 101.499L55.2418 101.426V101.433Z" fill="#3558A2"/>
<path d="M14.2859 116.863L12.9668 116.458C11.5318 115.943 10.5461 114.957 10.9665 113.341C11.3869 111.725 12.6117 111.189 14.1772 111.522C17.4965 112.312 20.8376 113.029 24.1208 113.957C25.6428 114.421 26.6792 115.501 26.2443 117.182C25.7152 118.914 24.4614 119.291 22.9612 118.98C20.0332 118.385 17.2429 117.61 14.3583 116.878L14.2859 116.856V116.863Z" fill="#3558A2"/>
<path d="M16.3226 124.082L11.8146 122.705C10.0099 122.154 9.08226 120.733 9.59683 119.298C10.1766 117.653 11.5174 117.233 13.1119 117.718C16.1849 118.581 19.2071 119.356 22.251 120.291C24.2586 120.907 25.0703 122.219 24.5847 123.806C24.0992 125.394 22.7149 125.959 20.6783 125.415L16.3153 124.082H16.3226Z" fill="#3558A2"/>
</svg>

<svg xmlns="http://www.w3.org/2000/svg" width="149" height="141" fill="none" viewBox="0 0 149 141"><path fill="#3558a2" d="M134.465 128.858c-12.321-3.088-24.352-5.863-36.267-9.277-4.044-1.16-7.023-.333-10.436 1.66-10.278 6.102-20.794 11.98-31.121 17.988-1.131.718-2.494 1.21-3.82 1.334-1.348.195-2.747.065-4.066-.334-14.292-4.073-28.65-7.936-42.963-11.936-4.617-1.261-4.595-1.334-4.646-6.125C.886 86.619.69 51.085.43 15.536c.029-1.58.195-3.124.456-4.711.21-1.681 1.457-2.283 2.892-2.522C13.206 6.716 22.613 5.2 31.955 3.664c2.878-.485 5.683-.985 8.618-1.152 3.247-.217 3.964.913 3.587 4.131-.413 3.588-.601 7.168-.739 10.842.05.32.196.595.34.863.167.203.472.45.725.601 2.08.638 4.226 1.066 6.364 1.493.594.03 1.167-.094 1.616-.34C65.38 13.818 78.267 7.607 91.153 1.172c2.08-1.11 4.458-1.443 6.806-.95 9.153 2.044 18.343 3.95 27.591 5.943 6.197 1.29 12.379 2.652 18.51 3.92 3.639.733 4.632 1.95 4.313 5.719-.979 13.343-2.022 26.664-3.015 40.079-1.761 23.337-3.45 46.695-5.233 70.098 0 .753-.123 1.398-.341 2.094q-.728 2.394-3.261 1.732a17 17 0 0 1-2.037-.775l-.029-.16zm-79.274 4.921c.435-.174.776-.297 1.203-.464 7.617-4.341 15.17-8.697 22.736-13.125.29-.21.514-.449.623-.797l.297-.972c-.123-5.037-.616-10.117-.442-15.14.181-2.826.942-5.551 2.094-8.073 1.675-3.733 5.27-5.82 8.727-7.712.521-.217 1.036-.666 1.348-1.18.311-.516.5-1.139.442-1.682.195-7.82.413-15.713.696-23.584.13-4.13.202-8.349.347-12.777-3.03.74-5.812 2.16-8.197 4.24-6.805 5.645-13.516 11.48-20.394 17.104-2.631 2.152-5.472 4.008-8.284 6.03-.384.26-1.037.666-1.051.964-.116 2.848-.087 5.732-.08 8.69.254-.073.573-.131.82-.204 5.667-2.435 10.566.885 10.19 7.06-.392 6.472-3.806 11.19-9.321 14.35-1.196.695-1.935 1.377-1.718 2.884.037.616.03 1.145 0 1.74l.015 22.742-.051-.087zm-5.226-26.004c-1.362-.261-2.391-.355-3.457-.602-5.399-1.427-10.335-3.616-13.552-8.465-2.073-3.138-2.465-7.044-.646-9.291 2.247-2.877 5.313-3 8.589-2.297 2.508.463 5.044 1.087 7.566.043 1.044-.442 1.58-.957 1.551-2.102-.087-2.45-.101-4.877.03-7.269.144-.486-.051-1.08-.312-1.457a2.2 2.2 0 0 0-1.24-.906c-3.536-1.311-6.95-2.805-10.509-4.051-10.523-3.754-21.09-1.906-31.81-.334-.144.486-.137.943-.122 1.4.05 9.486.195 18.93.174 28.402-.015 1.283.478 1.66 1.609 1.935 8.16 1.812 16.321 3.631 24.482 5.443 3.827.87 4.798 2.153 4.508 6.081s-.653 7.834-1.037 11.806c-.29 3.247 1.117 5.342 4.211 6.291l2.841.87c2.305.63 4.639 1.188 7.175 1.819l-.029-27.142-.029-.16zm88.421-28.881c.906-12.611 1.811-24.99 2.826-37.716-2.029.442-3.602.87-5.196 1.137-6.712 1.131-13.401 2.421-20.185 3.298-5.211.681-10.429.899-15.647 1.348-1.008.072-1.66.478-1.653 1.689-.29 12.342-.717 24.641-1.007 36.984-.007.529.312 1.457.725 1.587 2.225.906 4.529 1.536 6.762-.05a21.4 21.4 0 0 0 2.855-2.385c7.096-7.074 15.575-9.03 25.2-7.299 1.725.305 3.457.834 5.421 1.356l-.087.05zm-83.144-8.915c.435-.174.884-.413 1.312-.58.97-.688 1.935-1.377 2.833-2.087 6.871-5.856 13.67-11.734 20.518-17.517 3.276-2.783 6.842-5.262 11.103-6.306 2.03-.442 2.537-1.348 2.508-3.246-.044-4.56.21-9.11.319-13.923-2.348-.26-4.733-.384-7.074-.42a12.3 12.3 0 0 0-4.856 1.246c-1.478.61-2.703 1.145-3.855-.268-.92-1.188-.5-2.58 1.188-3.877 2.472-1.9 5.306-2.472 8.379-2.363 2.16.13 4.247.24 6.472.391l.442-15.328c-.21-.065-.457.014-.71.087-12.553 6.088-25.099 12.176-37.6 18.358-.182.094-.363.195-.494.377-.13.188-.268.377-.326.58-.072 3.696 0 7.428-.022 11.211 1.827-.275 3.378-.63 4.864-.782 5.03-.58 9.827-.174 13.908 3.348 1.688 1.428 2.138 2.928 1.043 4.262s-2.45 1.072-4.24-.008c-1.608-.95-3.355-2.167-5.073-2.232-3.145-.13-6.363.478-9.581.855-.268.145-.493.377-.718.616-.152.254-.239.537-.275.9-.058 8.848-.022 17.654-.044 26.895l-.029-.16zM18.308 47.99c.37.036.595.03.877.116 4.907.065 6.733 1.53 7.857 6.27.072.253.239.449.405.652.167.202.42.355.631.42 3.769 1.304 5.74 4.03 6.066 7.921-.058.435.116.87.326 1.16.283.312.674.507 1.044.55 2.03.544 4.022 1.233 6.03 1.849 2.732.986 5.457 1.971 8.443 3.116l.044-26.895c-7.545 1.63-14.539 1.688-20.344-4.102-5.523-5.48-7.11-12.183-6.385-19.764L5.683 15.18c.044 9.262.174 18.242.196 27.345 8.24-2.407 11.299-1.015 12.378 5.377zm80.318-6.349c3.957-.304 7.551-.645 11.096-.848 8.769-.42 17.575-1.217 26.04-3.855 1.413-.399 2.848-.645 4.29-.66 1.008-.072 1.53-.29 1.573-1.413.377-6.175.819-12.328 1.334-18.467.079-1.26-.406-1.638-1.421-1.797-2.58-.486-5.117-1.109-7.718-1.53a2.25 2.25 0 0 0-1.03.138c-.34.124-.63.334-.927.551-3.225 3.11-6.146 6.458-9.466 9.386-5.544 4.747-12.248 6.102-19.35 5.522-1.262-.08-2.508-.463-4.008-.768-.16 4.726-.254 9.248-.413 13.741m38.542 53.103c.196-3.124.5-5.834.522-8.632a3 3 0 0 0-.326-1.16 2 2 0 0 0-.87-.87c-9.415-3.413-18.083-2.58-25.417 4.806-2.08 2.094-4.443 3.87-7.371 4.261-2.058.283-4.29-.101-6.559-.116-.16 6.472-.384 13.147-.536 19.844.014.457.782 1.153 1.29 1.232 4.269 1.153 8.494 2.218 12.784 3.305.696.21 1.501.304 2.791.551-.653-1.334-1.044-2.29-1.544-3.124-.602-1.014-1.29-1.986-1.979-2.957-1.645-2.551-1.478-5.073.319-7.479 2.349-3.225 5.494-4.834 9.379-5.617a61 61 0 0 0 9.429-2.573c2.587-1.03 4.986-2.413 8.102-1.464zm-2.312 28.852.319-1.036c.471-6.755 1.022-13.481 1.493-20.235.196-2.363-1.095-3.363-3.196-2.189-4.276 2.326-8.973 3.319-13.72 4.218-1.602.268-3.08 1.406-4.435 2.356-1.356.949-1.232 2.051-.37 3.449 1.189 1.805 2.819 3.668 3.029 5.704.341 3.588 2.399 4.298 5.327 4.892 3.871.732 7.61 1.877 11.604 2.943l-.051-.087zm-8.233-112.039L99.778 5.918c-.123 5.117-.261 9.77-.493 14.48-.08 1.494.399 2.168 1.855 2.617 8.726 2.443 21.026-2.812 25.497-10.994 0 0 .044-.138-.014-.457zm-98.82 8.87c.514 3.27.79 6.082 1.572 8.741 2.044 6.69 7.617 10.292 14.568 9.61 1.558-.13 3.109-.492 4.66-.623 1.03-.137 1.406-.63 1.355-1.71-.101-3.138-.108-6.327.015-9.465 0-1.218-.5-1.595-1.558-1.841-2.283-.471-4.588-1.102-6.944-1.595l-13.813-3.167.137.044zM5.965 65.284l22.699-1.848c-.188-2.102-1.174-3.088-3.515-3.124-3.392-.05-4.124-.884-3.595-4.356.044-.137.087-.275.036-.37.399-1.543-.427-2.326-1.891-2.246-1.08.05-2.218.304-3.24.674-2.747 1.05-4.638-.435-4.21-3.334.072-.732.427-1.384.5-2.123.282-1.66-.566-2.37-2.182-2.03-3.348.797-4.798 2.551-4.762 5.892 0 1.972 0 3.943.08 5.936.101 2.385.072 4.718.058 6.994l.022-.073zm24.163 64.691c.442-5.399.783-9.994 1.29-14.611.167-1.544-.348-2.08-1.776-2.363-5.276-1.087-10.509-2.304-15.748-3.529a333 333 0 0 0-7.625-1.573c.058 5.023.08 9.647.174 14.299.073.254.217.522.457.747.232.225.492.377.768.464 3.464 1.058 6.994 1.913 10.458 2.971 3.878 1.189 7.762 2.377 12.06 3.689l-.05-.087zm61.756-37.34c-3.297 2.103-6.363 3.965-6.667 7.661-.428 4.871-.124 9.814-.116 14.742.08.478.16.957.384 1.478 3.826-1.761 5.82-4.66 5.993-8.697l.066-.21.384-14.886-.05-.087zM38.703 7.847 15.43 11.564l-.029.595 22.641 5.261zm11.292 94.631-.03-10.313c-3.587 1.326-6.82.493-10.016.043-1.08-.18-2.26.218-3.384.406.26 1.138.536 2.21.884 3.305a4 4 0 0 0 1.203 1.507c3.008 3.044 6.842 4.139 11.313 5.132l.022-.073zm5.247-1.044c3.595-2.84 5.812-5.877 5.733-10.067a2 2 0 0 0-.486-1.137c-.283-.32-.565-.63-.892-.805-1.087-.406-4.283 2.102-4.297 3.385-.073 2.71-.051 5.363-.08 8.69l.022-.073z"/><path fill="#3558a2" d="m14.286 116.863-1.32-.405c-1.434-.515-2.42-1.501-2-3.117s1.646-2.152 3.211-1.819c3.32.79 6.66 1.507 9.944 2.435 1.522.464 2.558 1.544 2.123 3.225-.529 1.732-1.783 2.109-3.283 1.798-2.928-.595-5.718-1.37-8.603-2.102l-.072-.022zM16.323 124.082l-4.508-1.377c-1.805-.551-2.733-1.972-2.218-3.407.58-1.645 1.92-2.065 3.515-1.58 3.073.863 6.095 1.638 9.139 2.573 2.008.616 2.82 1.928 2.334 3.515s-1.87 2.153-3.907 1.609l-4.363-1.333z"/></svg>
